thermometer-off.svg

<svg fill="currentColor" viewBox="0 0 24 24"><path d="m11 7.8-2-2V5c0-1.66 1.34-3 3-3s3 1.34 3 3v6.8L11.2 8H13V5c0-.55-.45-1-1-1s-1 .45-1 1zm11.11 13.66L2.39 1.73 1.11 3 9 10.89V13a4.997 4.997 0 0 0-1 7 4.997 4.997 0 0 0 7 1c.84-.63 1.4-1.5 1.71-2.4l4.13 4.13z"/></svg>

<svg  viewBox="0 0 24 24" fill="currentColor"><path  d="M11 7.8L9 5.8V5C9 3.34 10.34 2 12 2S15 3.34 15 5V11.8L11.2 8H13V5C13 4.45 12.55 4 12 4S11 4.45 11 5V7.8M22.11 21.46L2.39 1.73L1.11 3L9 10.89V13C6.79 14.66 6.34 17.79 8 20C9.66 22.21 12.79 22.66 15 21C15.84 20.37 16.4 19.5 16.71 18.6L20.84 22.73L22.11 21.46Z"/></svg>
